X:1
T:Title
%%score { ( 1 4 ) | ( 2 3 ) }
L:1/8
M:4/4
K:Eb
V:1 treble nm="Grand Piano"
V:4 treble 
V:2 bass 
V:3 bass 
V:1
 z4 z2[Q:1/4=100] E>F | G2 G>[FA] [GB]2 [Ac]>[Ad] | [Ge]4 [EB]2 [B,E]>[B,DF] | %3
 [B,EG]2 [B,EG]2 [EB]2 [B,EB]2 | [B,DF]6 [G,E]>[A,EF] | [B,EG]2 [B,EG]>[B,FA] [EGB]2 [EAc]>[Ad] | %6
 [Ge]4 [EB]2 [B,E]>[B,EF] | [EG]2 [GB]<[FA] [EG]2 [DF]>F |[M:3/4] E6 |[M:1/4] B>B |[M:4/4] d6 z2 | %11
 e4 [GB]2 z2 | [FA]2 [FA]<[FA] [FA]c B>[B,FA] | B,2 B,>B, [GB]2 [GB]>[GB] | c2 c>d e2 d>c | %15
 [EGB]4 [B,EG]2 [B,E]>[B,EF] | [B,EG]2 [B,GB]<[B,FA] [B,EG]2 [A,DF]>[A,DF] |[M:3/4] [G,E]6 |] %18
V:2
 z4 z2 [E,G,]>[E,A,E] | [E,B,E]2 [E,B,E]>[E,B,] [E,E]2 [A,E]>[F,B,] | [E,B,]4 [E,G,]2 G,,>B,, | %3
 E,2 E,2 [E,G,]2 G,,2 | B,,6 E,>E, | E,2 E,>E, E,2 A,>[F,B,] | [E,B,]4 [E,G,]2 G,,>A,, | %7
 [B,,B,]2 [B,,B,]<[B,,B,] [B,,B,]2 z z/ D/ |[M:3/4] [E,G,]6 |[M:1/4][K:treble] G>G | %10
[M:4/4] A6 A>A | G4[K:bass] z4 | [B,,B,]2 [B,,B,]<[B,,B,] z[K:treble] A G>[K:bass]B,, | %13
 E,2 E,>E, [E,E]<[E,E] [E,E]>[E,E] | [A,EA]2 [A,EA]>[A,DA] [A,CA]2 [A,DA]>[B,EA] | %15
 E,4 E,2 G,,>A,, | B,,2 B,,<B,, B,,2 B,,>B,, |[M:3/4] E,6 |] %18
V:3
 x8 | x8 | x8 | x8 | x8 | x8 | x8 | z4 z2 [B,,A,]2 |[M:3/4] x6 |[M:1/4][K:treble] x2 |[M:4/4] x8 | %11
 z2[K:bass] E,>E, E,<E, [E,B,E]2 | z4 [B,,B,]2[K:treble] z2[K:bass] | x8 | x8 | x8 | x8 | %17
[M:3/4] x6 |] %18
V:4
 x8 | x8 | x8 | x8 | x8 | x8 | x8 | x8 |[M:3/4] x6 |[M:1/4] x2 |[M:4/4] z2 B,>B, B,2 c>B | %11
 z2 B,>B, E<E G2 | x8 | [EG]4 z4 | x8 | x8 | x8 |[M:3/4] x6 |] %18

